resources/svg/crop.svg

<svg xmlns="http://www.w3.org/2000/svg" viewBox="0 0 15 15" fill="currentColor"><path fill-rule="evenodd" clip-rule="evenodd" d="M3 3V0h1v3h8v8h3v1h-3v3h-1v-3H3V6h1v5h7V4H0V3h3z" fill="currentColor"/></svg>

<svg xmlns="http://www.w3.org/2000/svg" viewBox="0 0 15 15" fill="currentColor"><path fill-rule="evenodd" clip-rule="evenodd" d="M3 3V0H4V3H12V11H15V12H12V15H11V12H3V6H4V11H11V4H0V3H3Z" fill="black"/></svg>
